!!!COM: Corelli, Arcangelo
!!!OPR: Sonata da chiesa
!!!OPS: 3
!!!ONM: 8
!!!OMV: 1
!!!OMD: Largo
**kern	**harm	**fb	**kern	**kern
*part3	*above	*part3	*part2	*part1
*staff3	*	*	*staff2	*staff1
*I"Violone & Organo	*	*	*I"Violino II	*I"Violino I
*clefF4	*	*	*clefG2	*clefG2
*k[]	*	*	*k[]	*k[]
*M4/4	*	*	*M4/4	*M4/4
*met(c)	*	*	*met(c)	*met(c)
*MM56	*	*	*MM56	*MM56
=1	=1	=1	=1	=1
4.c	C.I{	.	4.ee	4.gg
8c	.	.	16ccLL	16eeLL
.	.	.	16ddJJ	16ffJJ
4C	.	.	8.eeL	8.ggL
.	.	.	16eeJk	16ggJk
4F	ii6	6	8.ddL	8.ffL
.	.	.	16ccJk	16eeJk
=2	=2	=2	=2	=2
4.G	V	.	4.b	4.dd
8E	I6	6	8ee	8gg
8FL	IV	.	(16aLL	8aaL
.	.	.	16bJ	.
8E	I6	6	8ccJ)	8ggJ
8D	ii7	7	8.ccTL	4ff
8GGJ	V7	7	.	.
.	.	.	16bJk	.
=3	=3	=3	=3	=3
8CL	I|IAC}	.	8ccL	4ee
8c	.	.	8ee	.
8B	V6	6	8dd	8r
8BBJ	.	.	8gJ	8gg
8AAL	IV6	6	8r	8ffL
8A	.	.	8ccL	8fJ
8G	iii6	6	8b	8r
8GGJ	.	.	8eJ	8ee
=4	=4	=4	=4	=4
8FFL	ii6	6	8r	8ddL
8F	.	.	8aaL	8dJ
8E	I6	6	8gg	8r
8CJ	.	.	8eeJ	8cc
8DL	ii	.	4a	4.ff
8C	.	.	.	.
8BB	V7	5	[4dd	.
8GGJ	.	.	.	(16ggLL
.	.	.	.	16ffJJ)
=5	=5	=5	=5	=5
8CL	I(9)	9	8ddL]	4.ee
8c	.	.	8gJ	.
8E	I6	6	4.cc	.
8FJ	IV	5	.	8aa
8GL	V(4)	5 4	.	4.dd
8GG	.	.	(16ddLL	.
.	.	.	16ccJJ)	.
8BB	V	6	[4b	.
8GGJ	.	.	.	(16eeLL
.	.	.	.	16ddJJ)
=6	=6	=6	=6	=6
8AAL	V.ii(9)	9	8bL]	4.cc
8A	.	.	(16ccL	.
.	.	.	16bJJ)	.
8F#X	V7	5	4.a	.
8DJ	.	.	.	(16ddLL
.	.	.	.	16ccJJ)
8GL	I(9)	9	.	4.b
8GG	.	.	8d	.
8BB	I	6	[4g	.
8GGJ	.	.	.	8dd
=7	=7	=7	=7	=7
8CL	ii7	6 5	4g]	(16eeLL
.	.	.	.	16dd)
8AA	.	.	.	(16cc
.	.	.	.	16bJJ)
8D	V	#	4f#X	4a
8DDJ	.	.	.	.
4GG	I|PAC}	.	4g	4g
8r	.	.	4r	4gg
8G	.	.	.	.
=8	=8	=8	=8	=8
4A	vi7	7	4r	8ccL
.	.	.	.	(16ddL
.	.	.	.	16eeJJ)
8r	.	.	4dd	4.ff
8B	viio	5	.	.
4c	I(4)	5 4	8gL	.
.	.	.	(16aL	(16eeLL
.	.	.	16bJJ)	16ddJJ)
8r	.	.	[4cc	8eeL
8C	.	3	.	(16ddL
.	.	.	.	16ccJJ)
=9	=9	=9	=9	=9
4G	V(4)	5 4	8ccL]	[4dd
.	.	.	(16bL	.
.	.	.	16aJJ)	.
4G#X	vi.#viio7	5 3	4.b	16ddLL]
.	.	.	.	(16ff
.	.	.	.	16ee
.	.	.	.	16ddJJ)
8AL	i(9)	9	.	[4cc
8AA	.	.	(16aLL	.
.	.	.	16g#XJJ)	.
8C	i6	6	[4a	16ccLL]
.	.	.	.	(16ee
8DJ	iv	.	.	16dd
.	.	.	.	16ccJJ)
=10	=10	=10	=10	=10
8EL	V(4)	5 4	4a]	8bL
8D	.	.	.	8ccJ
8E	.	5 4	8.aTL	4b
8EEJ	V	#	.	.
.	.	.	16g#XJk	.
4.AA	i|PAC}	5	4.a	8aL
.	.	.	.	8eeJ
.	VI6	6	.	[4ff
8A	.	.	8cc	.
=11	=11	=11	=11	=11
4.B	iio	5	4.dd	8ffL]
.	.	.	.	(16eeL
.	.	.	.	16ddJJ)
.	VII6	6	.	4.gg
16ALL	.	.	(16ccLL	.
16GJJ	.	.	16bJJ)	.
4.c	iii.VI	5	4.ee	.
.	.	.	.	16ff#XLL
.	.	.	.	16eeJJ
.	iv6	6	.	[4aa
8A	iio6	#6\	16ff#XLL	.
.	.	.	16eeJJ	.
=12	=12	=12	=12	=12
8BL	V7	7 #	8dd#XL	8aaL]
8A	.	7 5	8eeJ	8ggJ
8B	V(4)	5 4	8.eetL	4ff#X
8BBJ	V	#	.	.
.	.	.	16dd#Jk	.
4E	i|PAC}	.	4ee	4ee
8cL	I.I{	.	4r	8ggL
8EJ	I6	6	.	8ccJ
=13	=13	=13	=13	=13
4F	ii6	6	4r	(8ddTL
.	.	.	.	8ccJ)
4E	I6	6	8ggL	2r
.	.	.	8ccJ	.
4F	ii6	6	(8ddniTL	.
.	.	.	8ccJ)	.
8EL	I6	6	8.eenL	8.ggL
8CJ	I	.	.	.
.	.	.	16eeJk	16ggJk
=14	=14	=14	=14	=14
8FL	IV	.	8aL	8aaL
8G	.	.	8bJ	8ggJ
8A	.	6	8ccL	8.ffL
8FJ	.	.	(16ddL	.
.	.	.	16ccJJ)	16eeJk
4G	V|HC}	.	4b	8ddL
.	.	.	.	8gJ
8eL	I6	6	4r	[4gg
8EJ	.	.	.	.
=15	=15	=15	=15	=15
4A	vi7	7	4.cc	8ggL]
.	.	.	.	(16ffL
.	.	.	.	16eeJJ)
8dL	ii7	7	.	4.ff
8DJ	.	.	(16bLL	.
.	.	.	16aJJ)	.
4G	V7	7	4.b	.
.	.	.	.	(16eeLL
.	.	.	.	16ddJJ)
8cL	IM7	7	.	[4ee
8CJ	.	.	(16aLL	.
.	.	.	16gJJ)	.
=16	=16	=16	=16	=16
4F	IV7	7	4a	8eeL]
.	.	.	.	8aJ
4F#X	V6/V	6	4aa	8ddL
.	.	.	.	(16ddL
.	.	.	.	16ccJJ)
8GL	V|HC}	.	4dd	8bL
16GL	.	.	.	8gJ
16FnJJ	.	.	.	.
8EL	I6	6	8r	8r
8CJ	I	.	8ee	8gg
=17	=17	=17	=17	=17
8FL	IV	.	8aL	8aaL
8G	.	.	8bJ	8gg
8A	IV6	6	2cc	8ff
8EJ	I6	6	.	8eeJ
8FL	ii7	6 5	.	2dd
8D	.	.	.	.
8G	V	3	4b	.
8GGJ	.	.	.	.
=18	=18	=18	=18	=18
4C	I|PAC}	.	4cc	4cc
4BB	V6{	6	2r	8.ggL
.	.	.	.	16bJk
4AA	vi	.	.	[2cc
4GG	I64	.	8.ggL	.
.	.	.	16bJk	.
=19	=19	=19	=19	=19
4FF	IV	.	4cc	4cc]
4EE	I6	6	4ee	8.cccL
.	.	.	.	16ggJk
4FF	IV	.	8aL	8aaL
.	.	.	8bJ	8gg
4C	I	.	[4cc	8ff
.	.	.	.	8eeJ
=20	=20	=20	=20	=20
2GG	V(4)	4	4cc]	2dd
.	V	3	4b	.
2C	I|PAC}	.	2cc	2cc
==	==	==	==	==
*-	*-	*-	*-	*-
!!!system-decoration: [{s1,s2},s3]
!!!YEM: CC BY-NC-SA 4.0; CCARH; DCML
!!!RDF**kern: i = editorial accidental